!!!OTL: Der verkleidete Markgrafensohn Es war einmal ein junger Malgraf,
!!!ARE: Europa, Mitteleuropa, Deutschland / France, Lothringen,
!!    Kr. Saargemuend, Wiesweiler
!!!YOR: 1, S. 59
!!    1930 aufgezeichnet
!!!SCT: Q0006D
!!!YEM: Copyright 1995, estate of Helmut Schaffrath.
**kern
*ICvox
*Ivox
!! Mixed meters:  3/4; 2/4
*M2/4
*k[b-e-a-d-]
*f:
{4f
=1
4f
4a-
=2
*M3/4
2cc
4dd
=3
*M2/4
4cc
8b-
8a-
=4
2g}
=5
{4f
=6
4a-
4b-
=7
*M3/4
2cc
8b-
8a-
=8
*M2/4
2g
=9
2f}
=10
{4f
=11
4f
4g
=12
*M3/4
4a-
4g
4f
=13
*M2/4
8e-
8e-
4f
=14
2g}
=15
{4f
=16
4a-
4b-
=17
*M3/4
2cc
8b-
8a-
=18
*M2/4
2g
=19
2f}
==
!!!AGN: Ballade, Braut - Werbung
!! Letzter Tonlaenge korrigiert.
!!!ONB: ESAC (Essen Associative Code) Database: BALLADE
!!!AMT: irregular
!!!AIN: vox
!!!EED: Helmut Schaffrath
!!!EEV: 1.0
*-
